flaticon/medical/kidney-1.svg

<svg xmlns="http://www.w3.org/2000/svg" width="32" height="32" viewBox="0 0 24 24">
    <path d="M 18.34375 0.839844 C 16.417969 0.839844 14.277344 2.421875 14.183594 4.984375 C 14.152344 5.78125 14.507812 6.601562 14.886719 7.472656 C 15.019531 7.78125 15.15625 8.097656 15.277344 8.410156 C 14.164062 7.945312 13.328125 6.082031 13.328125 4.804688 C 13.328125 4.570312 13.136719 4.378906 12.902344 4.378906 C 12.664062 4.378906 12.472656 4.570312 12.472656 4.804688 C 12.472656 6.542969 13.714844 9.066406 15.472656 9.347656 C 15.503906 9.386719 15.542969 9.414062 15.585938 9.441406 C 15.59375 9.480469 15.605469 9.519531 15.613281 9.5625 C 14.023438 9.800781 12.695312 10.839844 12.046875 12.253906 C 11.386719 10.8125 10.019531 9.761719 8.390625 9.546875 C 8.402344 9.480469 8.417969 9.414062 8.433594 9.347656 C 10.21875 9.0625 11.621094 6.507812 11.621094 4.804688 C 11.621094 4.570312 11.429688 4.378906 11.195312 4.378906 C 10.957031 4.378906 10.765625 4.570312 10.765625 4.804688 C 10.765625 6.109375 9.824219 7.835938 8.746094 8.359375 C 8.859375 8.0625 8.988281 7.765625 9.113281 7.472656 C 9.492188 6.601562 9.847656 5.78125 9.816406 4.984375 C 9.722656 2.421875 7.582031 0.839844 5.65625 0.839844 C 2.539062 0.839844 0 5.050781 0 10.230469 C 0 15.40625 2.539062 19.621094 5.65625 19.621094 C 6.804688 19.621094 8.945312 19.621094 9.792969 17.199219 C 10.128906 16.242188 9.703125 15.109375 9.207031 13.796875 C 8.8125 12.746094 8.371094 11.5625 8.332031 10.398438 C 10.1875 10.667969 11.621094 12.265625 11.621094 14.199219 L 11.621094 22.734375 C 11.621094 22.972656 11.8125 23.160156 12.046875 23.160156 C 12.28125 23.160156 12.472656 22.972656 12.472656 22.734375 L 12.472656 14.199219 C 12.472656 12.300781 13.855469 10.722656 15.667969 10.414062 C 15.621094 11.574219 15.183594 12.75 14.789062 13.796875 C 14.296875 15.109375 13.871094 16.242188 14.207031 17.199219 C 15.054688 19.621094 17.195312 19.621094 18.34375 19.621094 C 21.460938 19.621094 24 15.410156 24 10.230469 C 24 5.050781 21.460938 0.839844 18.34375 0.839844 Z M 8.988281 16.917969 C 8.390625 18.625 7.015625 18.765625 5.65625 18.765625 C 3.007812 18.765625 0.855469 14.9375 0.855469 10.230469 C 0.855469 5.523438 3.007812 1.691406 5.65625 1.691406 C 7.195312 1.691406 8.890625 3.027344 8.964844 5.015625 C 8.988281 5.617188 8.667969 6.355469 8.332031 7.132812 C 8.296875 7.214844 8.261719 7.292969 8.226562 7.375 C 7.625 5.898438 6.230469 4.804688 4.695312 4.804688 C 4.460938 4.804688 4.269531 4.996094 4.269531 5.234375 C 4.269531 5.46875 4.460938 5.660156 4.695312 5.660156 C 6.230469 5.660156 7.628906 7.171875 7.679688 8.855469 C 7.617188 9.078125 7.566406 9.300781 7.53125 9.527344 L 5.121094 9.527344 C 4.886719 9.527344 4.695312 9.71875 4.695312 9.953125 C 4.695312 10.191406 4.886719 10.382812 5.121094 10.382812 L 7.472656 10.382812 C 7.460938 12.023438 6.347656 13.769531 4.695312 13.769531 C 4.460938 13.769531 4.269531 13.960938 4.269531 14.199219 C 4.269531 14.433594 4.460938 14.625 4.695312 14.625 C 6.121094 14.625 7.234375 13.671875 7.835938 12.4375 C 8.003906 13.015625 8.210938 13.574219 8.410156 14.097656 C 8.828125 15.207031 9.222656 16.253906 8.988281 16.917969 Z M 18.34375 18.765625 C 16.984375 18.765625 15.609375 18.625 15.011719 16.917969 C 14.777344 16.253906 15.171875 15.207031 15.589844 14.097656 C 15.789062 13.574219 15.996094 13.015625 16.164062 12.4375 C 16.835938 13.71875 18.117188 14.625 19.519531 14.625 C 19.753906 14.625 19.945312 14.433594 19.945312 14.199219 C 19.945312 13.960938 19.753906 13.769531 19.519531 13.769531 C 17.957031 13.769531 16.53125 12.203125 16.53125 10.480469 C 16.53125 10.464844 16.523438 10.449219 16.519531 10.429688 C 16.523438 10.40625 16.523438 10.378906 16.523438 10.355469 L 19.09375 10.355469 C 19.328125 10.355469 19.519531 10.164062 19.519531 9.929688 C 19.519531 9.691406 19.328125 9.5 19.09375 9.5 L 16.464844 9.5 C 16.417969 9.207031 16.347656 8.917969 16.257812 8.636719 C 16.46875 7.175781 17.679688 5.660156 19.210938 5.660156 C 19.445312 5.660156 19.636719 5.46875 19.636719 5.234375 C 19.636719 4.996094 19.445312 4.804688 19.210938 4.804688 C 17.644531 4.804688 16.367188 5.949219 15.753906 7.332031 C 15.726562 7.265625 15.699219 7.199219 15.667969 7.132812 C 15.332031 6.355469 15.011719 5.617188 15.035156 5.015625 C 15.109375 3.027344 16.804688 1.691406 18.34375 1.691406 C 20.992188 1.691406 23.144531 5.523438 23.144531 10.230469 C 23.144531 14.9375 20.992188 18.765625 18.34375 18.765625 Z M 18.34375 18.765625"/>
</svg>

<svg xmlns="http://www.w3.org/2000/svg" width="32" height="32" viewBox="0 0 24 24">
    <path d="M18.344.84c-1.926 0-4.067 1.582-4.16 4.144-.032.797.324 1.618.703 2.489.133.308.27.625.39.937-1.113-.465-1.949-2.328-1.949-3.605a.427.427 0 0 0-.855 0c0 1.738 1.242 4.261 3 4.543a.44.44 0 0 0 .113.093c.008.04.02.079.027.121a4.702 4.702 0 0 0-3.566 2.692A4.709 4.709 0 0 0 8.39 9.547c.011-.067.027-.133.043-.2 1.785-.284 3.187-2.84 3.187-4.542a.427.427 0 0 0-.855 0c0 1.304-.942 3.03-2.02 3.554.113-.296.242-.593.367-.886.38-.871.735-1.692.703-2.489C9.723 2.422 7.582.84 5.656.84 2.54.84 0 5.05 0 10.23c0 5.176 2.54 9.391 5.656 9.391 1.149 0 3.29 0 4.137-2.422.336-.957-.09-2.09-.586-3.402-.395-1.05-.836-2.235-.875-3.399a3.847 3.847 0 0 1 3.29 3.801v8.535c0 .239.19.426.425.426a.424.424 0 0 0 .426-.426V14.2a3.845 3.845 0 0 1 3.195-3.785c-.047 1.16-.484 2.336-.879 3.383-.492 1.312-.918 2.445-.582 3.402.848 2.422 2.988 2.422 4.137 2.422 3.117 0 5.656-4.21 5.656-9.39C24 5.05 21.46.84 18.344.84zM8.988 16.918c-.597 1.707-1.972 1.848-3.332 1.848-2.648 0-4.8-3.828-4.8-8.536 0-4.707 2.152-8.539 4.8-8.539 1.54 0 3.235 1.336 3.309 3.325.023.601-.297 1.34-.633 2.117l-.105.242c-.602-1.477-1.997-2.57-3.532-2.57a.428.428 0 0 0 0 .855c1.535 0 2.934 1.512 2.985 3.195a5.735 5.735 0 0 0-.149.672h-2.41a.427.427 0 0 0 0 .856h2.352c-.012 1.64-1.125 3.387-2.778 3.387a.428.428 0 0 0 0 .855c1.426 0 2.54-.953 3.14-2.188.169.579.376 1.137.575 1.66.418 1.11.813 2.157.578 2.821zm9.356 1.848c-1.36 0-2.735-.141-3.332-1.848-.235-.664.16-1.711.578-2.82.2-.524.406-1.082.574-1.66.672 1.28 1.953 2.187 3.356 2.187a.427.427 0 0 0 0-.855c-1.563 0-2.989-1.567-2.989-3.29 0-.015-.008-.03-.011-.05.003-.024.003-.051.003-.075h2.57a.427.427 0 0 0 0-.855h-2.628a5.91 5.91 0 0 0-.207-.863c.21-1.461 1.422-2.977 2.953-2.977a.427.427 0 0 0 0-.855c-1.566 0-2.844 1.144-3.457 2.527-.027-.066-.055-.133-.086-.2-.336-.777-.656-1.515-.633-2.116.074-1.989 1.77-3.325 3.309-3.325 2.648 0 4.8 3.832 4.8 8.54 0 4.707-2.152 8.535-4.8 8.535zm0 0"/>
</svg>
